docs/_static/img/datamodel.svg

<?xml version="1.0" encoding="UTF-8" standalone="no"?>
<svg xmlns:v="http://schemas.microsoft.com/visio/2003/SVGExtensions/" xmlns:dc="http://purl.org/dc/elements/1.1/" xmlns:cc="http://creativecommons.org/ns#" xmlns:rdf="http://www.w3.org/1999/02/22-rdf-syntax-ns#" xmlns:svg="http://www.w3.org/2000/svg" xmlns="http://www.w3.org/2000/svg" xmlns:sodipodi="http://sodipodi.sourceforge.net/DTD/sodipodi-0.dtd" xmlns:inkscape="http://www.inkscape.org/namespaces/inkscape" width="8.02198in" height="6.64403in" viewBox="0 0 577.583 478.37" xml:space="preserve" color-interpolation-filters="sRGB" class="st6" version="1.1" id="svg159" sodipodi:docname="datamodel.svg" inkscape:version="1.0.2 (e86c870879, 2021-01-15)"><metadata id="metadata165"><rdf:RDF><cc:Work rdf:about=""><dc:format>image/svg+xml</dc:format><dc:type rdf:resource="http://purl.org/dc/dcmitype/StillImage" /></cc:Work></rdf:RDF></metadata><defs id="defs163">
		
		
		
		
		
		
		
		
		
		
		
		
		
		
		
		
		
		
		
		
		
		
	
			
			
			
			
			
					</defs><sodipodi:namedview pagecolor="#ffffff" bordercolor="#666666" borderopacity="1" objecttolerance="10" gridtolerance="10" guidetolerance="10" inkscape:pageopacity="0" inkscape:pageshadow="2" inkscape:window-width="2739" inkscape:window-height="1187" id="namedview161" showgrid="false" inkscape:zoom="1.2432841" inkscape:cx="259.58091" inkscape:cy="318.91344" inkscape:window-x="0" inkscape:window-y="27" inkscape:window-maximized="0" inkscape:current-layer="svg159" />
	<v:documentProperties v:langID="1033" v:metric="true" v:viewMarkup="false">
		<v:userDefs>
			<v:ud v:nameU="msvNoAutoConnect" v:val="VT0(0):26" />
		</v:userDefs>
	</v:documentProperties>

	<style type="text/css" id="style2">
	<![CDATA[
		.st1 {fill:#ffffff;stroke:#101f70;stroke-linecap:round;stroke-linejoin:round;stroke-width:1.5}
		.st2 {fill:#101f70;font-family:Droid Serif;font-size:1.33333em}
		.st3 {fill:#101f70;font-family:Droid Sans;font-size:1.00001em}
		.st4 {font-size:1em}
		.st5 {fill:none;stroke:#101f70;stroke-linecap:round;stroke-linejoin:round;stroke-width:1.5}
		.st6 {fill:none;fill-rule:evenodd;font-size:12px;overflow:visible;stroke-linecap:square;stroke-miterlimit:3}
	]]>
	</style>

	<g id="g1222"><g id="shape1-1" v:mID="1" v:groupContext="shape" transform="translate(203.752,-274.618)">
			<title id="title6">Sheet.1</title>
			<desc id="desc8">Domain</desc>
			<v:textBlock v:margins="rect(4,4,4,4)" v:tabSpace="42.5197" />
			<v:textRect cx="70.8661" cy="464.197" width="141.74" height="28.3465" />
			<rect x="0" y="450.02399" width="141.73199" height="28.3465" class="st1" id="rect10" />
			<text x="40.650002" y="469" class="st2" v:langID="1033" id="text12"><v:paragraph v:horizAlign="1" /><v:tabList />Domain</text>		</g><g id="shape2-4" v:mID="2" v:groupContext="shape" transform="translate(203.752,-76.1929)">
			<title id="title15">Sheet.2</title>
			<desc id="desc17">Options</desc>
			<v:textBlock v:margins="rect(4,4,4,4)" v:tabSpace="42.5197" />
			<v:textRect cx="70.8661" cy="464.197" width="141.74" height="28.3465" />
			<rect x="0" y="450.02399" width="141.73199" height="28.3465" class="st1" id="rect19" />
			<text x="41.259998" y="469" class="st2" v:langID="1033" id="text21"><v:paragraph v:horizAlign="1" /><v:tabList />Options</text>		</g><g id="shape3-7" v:mID="3" v:groupContext="shape" transform="translate(203.752,-161.232)">
			<title id="title24">Sheet.3</title>
			<desc id="desc26">Conditions</desc>
			<v:textBlock v:margins="rect(4,4,4,4)" v:tabSpace="42.5197" />
			<v:textRect cx="70.8661" cy="464.197" width="141.74" height="28.3465" />
			<rect x="0" y="450.02399" width="141.73199" height="28.3465" class="st1" id="rect28" />
			<text x="29.950001" y="469" class="st2" v:langID="1033" id="text30"><v:paragraph v:horizAlign="1" /><v:tabList />Conditions</text>		</g><g id="shape4-10" v:mID="4" v:groupContext="shape" transform="translate(19.5,-274.618)">
			<title id="title33">Sheet.4</title>
			<desc id="desc35">Questions</desc>
			<v:textBlock v:margins="rect(4,4,4,4)" v:tabSpace="42.5197" />
			<v:textRect cx="56.6929" cy="464.197" width="113.39" height="28.3465" />
			<rect x="0" y="450.02399" width="113.386" height="28.3465" class="st1" id="rect37" />
			<text x="19.030001" y="469" class="st2" v:langID="1033" id="text39"><v:paragraph v:horizAlign="1" /><v:tabList />Questions</text>		</g><g id="g1136"><rect x="19.5" y="203.75211" width="113.386" height="198.425" class="st1" id="rect93" /><text xml:space="preserve" style="font-style:normal;font-weight:normal;font-size:12px;line-height:0;font-family:sans-serif;fill:#000000;fill-opacity:1;stroke:none;stroke-width:0.750001" x="76.099251" y="271.51031" id="text296"><tspan sodipodi:role="line" id="tspan294" x="76.099251" y="271.51031" style="font-style:normal;font-variant:normal;font-weight:normal;font-stretch:normal;font-size:12px;line-height:1.45;font-family:'Droid Sans';-inkscape-font-specification:'Droid Sans';text-align:center;text-anchor:middle;fill:#101f70;stroke-width:0.750001">Catalogs</tspan><tspan sodipodi:role="line" x="76.099251" y="288.91031" style="font-style:normal;font-variant:normal;font-weight:normal;font-stretch:normal;font-size:12px;line-height:1.45;font-family:'Droid Sans';-inkscape-font-specification:'Droid Sans';text-align:center;text-anchor:middle;fill:#101f70;stroke-width:0.750001" id="tspan298">Sections</tspan><tspan sodipodi:role="line" x="76.099251" y="306.3103" style="font-style:normal;font-variant:normal;font-weight:normal;font-stretch:normal;font-size:12px;line-height:1.45;font-family:'Droid Sans';-inkscape-font-specification:'Droid Sans';text-align:center;text-anchor:middle;fill:#101f70;stroke-width:0.750001" id="tspan300">Pages</tspan><tspan sodipodi:role="line" x="76.099251" y="323.71033" style="font-style:normal;font-variant:normal;font-weight:normal;font-stretch:normal;font-size:12px;line-height:1.45;font-family:'Droid Sans';-inkscape-font-specification:'Droid Sans';text-align:center;text-anchor:middle;fill:#101f70;stroke-width:0.750001" id="tspan302">Question sets</tspan><tspan sodipodi:role="line" x="76.099251" y="341.11032" style="font-style:normal;font-variant:normal;font-weight:normal;font-stretch:normal;font-size:12px;line-height:1.45;font-family:'Droid Sans';-inkscape-font-specification:'Droid Sans';text-align:center;text-anchor:middle;fill:#101f70;stroke-width:0.750001" id="tspan304">Questions</tspan></text></g><g id="shape5-13" v:mID="5" v:groupContext="shape" transform="translate(416.35,-274.618)">
			<title id="title42">Sheet.5</title>
			<desc id="desc44">Views</desc>
			<v:textBlock v:margins="rect(4,4,4,4)" v:tabSpace="42.5197" />
			<v:textRect cx="70.8661" cy="435.85" width="141.74" height="85.0394" />
			<rect x="0" y="393.33099" width="141.73199" height="85.039398" class="st1" id="rect46" />
			<text x="48.119999" y="440.64999" class="st2" v:langID="1033" id="text48"><v:paragraph v:horizAlign="1" /><v:tabList />Views</text>		</g><g id="shape6-16" v:mID="6" v:groupContext="shape" transform="translate(416.35,-161.232)">
			<title id="title51">Sheet.6</title>
			<desc id="desc53">Tasks</desc>
			<v:textBlock v:margins="rect(4,4,4,4)" v:tabSpace="42.5197" />
			<v:textRect cx="70.8661" cy="435.85" width="141.74" height="85.0394" />
			<rect x="0" y="393.33099" width="141.73199" height="85.039398" class="st1" id="rect55" />
			<text x="49.560001" y="440.64999" class="st2" v:langID="1033" id="text57"><v:paragraph v:horizAlign="1" /><v:tabList />Tasks</text>		</g><g id="shape7-19" v:mID="7" v:groupContext="shape" transform="translate(203.752,-430.524)">
			<title id="title60">Sheet.7</title>
			<desc id="desc62">Projects</desc>
			<v:textBlock v:margins="rect(4,4,4,4)" v:tabSpace="42.5197" />
			<v:textRect cx="70.8661" cy="464.197" width="141.74" height="28.3465" />
			<rect x="0" y="450.02399" width="141.73199" height="28.3465" class="st1" id="rect64" />
			<text x="40.599998" y="469" class="st2" v:langID="1033" id="text66"><v:paragraph v:horizAlign="1" /><v:tabList />Projects</text>		</g><g id="shape8-22" v:mID="8" v:groupContext="shape" transform="translate(203.752,-19.5)">
			<title id="title69">Sheet.8</title>
			<desc id="desc71">Option sets Options</desc>
			<v:textBlock v:margins="rect(4,4,4,4)" v:tabSpace="42.5197" />
			<v:textRect cx="70.8661" cy="450.024" width="141.74" height="56.6929" />
			<rect x="0" y="421.677" width="141.73199" height="56.692902" class="st1" id="rect73" />
			<text x="40.099998" y="445.22" class="st3" v:langID="1033" id="text77"><v:paragraph v:spLine="-1.6" v:horizAlign="1" /><v:tabList />Option sets<v:newlineChar /><tspan x="49.610001" dy="1.6em" class="st4" id="tspan75">Options</tspan></text>		</g><g id="shape9-26" v:mID="9" v:groupContext="shape" transform="translate(203.752,-217.925)">
			<title id="title80">Sheet.9</title>
			<desc id="desc82">Attributes</desc>
			<v:textBlock v:margins="rect(4,4,4,4)" v:tabSpace="42.5197" />
			<v:textRect cx="70.8661" cy="450.024" width="141.74" height="56.6929" />
			<rect x="0" y="421.677" width="141.73199" height="56.692902" class="st1" id="rect84" />
			<text x="44.209999" y="454.82001" class="st3" v:langID="1033" id="text86"><v:paragraph v:spLine="-1.6" v:horizAlign="1" /><v:tabList />Attributes</text>		</g><g id="shape11-36" v:mID="11" v:groupContext="shape" transform="translate(203.752,-373.831)">
			<title id="title106">Sheet.11</title>
			<desc id="desc108">Snapshots Values</desc>
			<v:textBlock v:margins="rect(4,4,4,4)" v:tabSpace="42.5197" />
			<v:textRect cx="70.8661" cy="450.024" width="141.74" height="56.6929" />
			<rect x="0" y="421.677" width="141.73199" height="56.692902" class="st1" id="rect110" />
			<text x="43.07" y="445.22" class="st3" v:langID="1033" id="text114"><v:paragraph v:spLine="-1.6" v:horizAlign="1" /><v:tabList />Snapshots<v:newlineChar /><tspan x="53.27" dy="1.6em" class="st4" id="tspan112">Values</tspan></text>		</g><g id="shape15-40" v:mID="15" v:groupContext="shape" transform="rotate(90,206.5865,537.8975)">
			<title id="title117">45 degree double</title>
			<v:userDefs>
				<v:ud v:nameU="visVersion" v:val="VT0(14):26" />
			</v:userDefs>
			<path d="m 0,469.87 8.5,-8.51 v 5.61 h 11.34 v -5.61 l 8.51,8.51 -8.51,8.5 v -5.61 H 8.5 v 5.61 z" class="st5" id="path119" />
		</g><g id="shape18-42" v:mID="18" v:groupContext="shape" transform="matrix(1,0,0,-1,359.657,713.303)">
			<title id="title122">45 degree single.18</title>
			<v:userDefs>
				<v:ud v:nameU="visVersion" v:val="VT0(14):26" />
			</v:userDefs>
			<path d="m 0,467.03 11.34,-11.34 v 7.49 h 31.18 v 7.71 H 11.34 v 7.48 z" class="st5" id="path124" />
		</g><g id="shape16-44" v:mID="16" v:groupContext="shape" transform="matrix(1,0,0,-1,359.657,656.61)">
			<title id="title127">45 degree single.16</title>
			<v:userDefs>
				<v:ud v:nameU="visVersion" v:val="VT0(14):26" />
			</v:userDefs>
			<path d="m 0,467.03 11.34,-11.34 v 7.49 h 31.18 v 7.71 H 11.34 v 7.48 z" class="st5" id="path129" />
		</g><g id="shape19-46" v:mID="19" v:groupContext="shape" transform="matrix(1,0,0,-1,359.657,769.996)">
			<title id="title132">45 degree single.19</title>
			<v:userDefs>
				<v:ud v:nameU="visVersion" v:val="VT0(14):26" />
			</v:userDefs>
			<path d="m 0,467.03 11.34,-11.34 v 7.49 h 31.18 v 7.71 H 11.34 v 7.48 z" class="st5" id="path134" />
		</g><g id="shape12-48" v:mID="12" v:groupContext="shape" transform="matrix(-1,0,0,1,189.579,-164.067)">
			<title id="title137">45 degree single.12</title>
			<v:userDefs>
				<v:ud v:nameU="visVersion" v:val="VT0(14):26" />
			</v:userDefs>
			<path d="m 0,467.03 11.34,-11.34 v 7.49 h 31.18 v 7.71 H 11.34 v 7.48 z" class="st5" id="path139" />
		</g><g id="shape20-50" v:mID="20" v:groupContext="shape" transform="matrix(-1,0,0,1,189.579,-277.453)">
			<title id="title142">45 degree single.20</title>
			<v:userDefs>
				<v:ud v:nameU="visVersion" v:val="VT0(14):26" />
			</v:userDefs>
			<path d="m 0,467.03 11.34,-11.34 v 7.49 h 31.18 v 7.71 H 11.34 v 7.48 z" class="st5" id="path144" />
		</g><g id="shape21-52" v:mID="21" v:groupContext="shape" transform="matrix(-1,0,0,1,189.579,-79.0276)">
			<title id="title147">45 degree single.21</title>
			<v:userDefs>
				<v:ud v:nameU="visVersion" v:val="VT0(14):26" />
			</v:userDefs>
			<path d="m 0,467.03 11.34,-11.34 v 7.49 h 31.18 v 7.71 H 11.34 v 7.48 z" class="st5" id="path149" />
		</g><g id="shape22-54" v:mID="22" v:groupContext="shape" transform="matrix(0,-1,-1,0,741.65,161.232)">
			<title id="title152">45 degree single.22</title>
			<v:userDefs>
				<v:ud v:nameU="visVersion" v:val="VT0(14):26" />
			</v:userDefs>
			<path d="m 0,467.03 11.34,-11.34 v 7.49 h 31.18 v 7.71 H 11.34 v 7.48 z" class="st5" id="path154" />
		</g></g>
</svg>

<?xml version="1.0" encoding="UTF-8" standalone="no"?>
<!DOCTYPE svg PUBLIC "-//W3C//DTD SVG 1.0//EN" "http://www.w3.org/TR/2001/REC-SVG-20010904/DTD/svg10.dtd">
<!-- Generated by Microsoft Visio 11.0, SVG Export, v1.0 rdmo-neu-en.svg Page-1 -->
<svg xmlns="http://www.w3.org/2000/svg" xmlns:xlink="http://www.w3.org/1999/xlink" xmlns:ev="http://www.w3.org/2001/xml-events"
		xmlns:v="http://schemas.microsoft.com/visio/2003/SVGExtensions/" width="8.02198in" height="6.64403in"
		viewBox="0 0 577.583 478.37" xml:space="preserve" color-interpolation-filters="sRGB" class="st6">
	<v:documentProperties v:langID="1033" v:metric="true" v:viewMarkup="false">
		<v:userDefs>
			<v:ud v:nameU="msvNoAutoConnect" v:val="VT0(0):26"/>
		</v:userDefs>
	</v:documentProperties>

	<style type="text/css">
	<![CDATA[
		.st1 {fill:#ffffff;stroke:#101f70;stroke-linecap:round;stroke-linejoin:round;stroke-width:1.5}
		.st2 {fill:#101f70;font-family:Droid Serif;font-size:1.33333em}
		.st3 {fill:#101f70;font-family:Droid Sans;font-size:1.00001em}
		.st4 {font-size:1em}
		.st5 {fill:none;stroke:#101f70;stroke-linecap:round;stroke-linejoin:round;stroke-width:1.5}
		.st6 {fill:none;fill-rule:evenodd;font-size:12px;overflow:visible;stroke-linecap:square;stroke-miterlimit:3}
	]]>
	</style>

	<g v:mID="0" v:index="1" v:groupContext="foregroundPage">
		<title>Page-1</title>
		<v:pageProperties v:drawingScale="0.0393701" v:pageScale="0.0393701" v:drawingUnits="24" v:shadowOffsetX="8.50394"
				v:shadowOffsetY="-8.50394"/>
		<v:layer v:name="Connector" v:index="0"/>
		<g id="shape1-1" v:mID="1" v:groupContext="shape" transform="translate(203.752,-274.618)">
			<title>Sheet.1</title>
			<desc>Domain</desc>
			<v:textBlock v:margins="rect(4,4,4,4)" v:tabSpace="42.5197"/>
			<v:textRect cx="70.8661" cy="464.197" width="141.74" height="28.3465"/>
			<rect x="0" y="450.024" width="141.732" height="28.3465" class="st1"/>
			<text x="40.65" y="469" class="st2" v:langID="1033"><v:paragraph v:horizAlign="1"/><v:tabList/>Domain</text>		</g>
		<g id="shape2-4" v:mID="2" v:groupContext="shape" transform="translate(203.752,-76.1929)">
			<title>Sheet.2</title>
			<desc>Options</desc>
			<v:textBlock v:margins="rect(4,4,4,4)" v:tabSpace="42.5197"/>
			<v:textRect cx="70.8661" cy="464.197" width="141.74" height="28.3465"/>
			<rect x="0" y="450.024" width="141.732" height="28.3465" class="st1"/>
			<text x="41.26" y="469" class="st2" v:langID="1033"><v:paragraph v:horizAlign="1"/><v:tabList/>Options</text>		</g>
		<g id="shape3-7" v:mID="3" v:groupContext="shape" transform="translate(203.752,-161.232)">
			<title>Sheet.3</title>
			<desc>Conditions</desc>
			<v:textBlock v:margins="rect(4,4,4,4)" v:tabSpace="42.5197"/>
			<v:textRect cx="70.8661" cy="464.197" width="141.74" height="28.3465"/>
			<rect x="0" y="450.024" width="141.732" height="28.3465" class="st1"/>
			<text x="29.95" y="469" class="st2" v:langID="1033"><v:paragraph v:horizAlign="1"/><v:tabList/>Conditions</text>		</g>
		<g id="shape4-10" v:mID="4" v:groupContext="shape" transform="translate(19.5,-274.618)">
			<title>Sheet.4</title>
			<desc>Questions</desc>
			<v:textBlock v:margins="rect(4,4,4,4)" v:tabSpace="42.5197"/>
			<v:textRect cx="56.6929" cy="464.197" width="113.39" height="28.3465"/>
			<rect x="0" y="450.024" width="113.386" height="28.3465" class="st1"/>
			<text x="19.03" y="469" class="st2" v:langID="1033"><v:paragraph v:horizAlign="1"/><v:tabList/>Questions</text>		</g>
		<g id="shape5-13" v:mID="5" v:groupContext="shape" transform="translate(416.35,-274.618)">
			<title>Sheet.5</title>
			<desc>Views</desc>
			<v:textBlock v:margins="rect(4,4,4,4)" v:tabSpace="42.5197"/>
			<v:textRect cx="70.8661" cy="435.85" width="141.74" height="85.0394"/>
			<rect x="0" y="393.331" width="141.732" height="85.0394" class="st1"/>
			<text x="48.12" y="440.65" class="st2" v:langID="1033"><v:paragraph v:horizAlign="1"/><v:tabList/>Views</text>		</g>
		<g id="shape6-16" v:mID="6" v:groupContext="shape" transform="translate(416.35,-161.232)">
			<title>Sheet.6</title>
			<desc>Tasks</desc>
			<v:textBlock v:margins="rect(4,4,4,4)" v:tabSpace="42.5197"/>
			<v:textRect cx="70.8661" cy="435.85" width="141.74" height="85.0394"/>
			<rect x="0" y="393.331" width="141.732" height="85.0394" class="st1"/>
			<text x="49.56" y="440.65" class="st2" v:langID="1033"><v:paragraph v:horizAlign="1"/><v:tabList/>Tasks</text>		</g>
		<g id="shape7-19" v:mID="7" v:groupContext="shape" transform="translate(203.752,-430.524)">
			<title>Sheet.7</title>
			<desc>Projects</desc>
			<v:textBlock v:margins="rect(4,4,4,4)" v:tabSpace="42.5197"/>
			<v:textRect cx="70.8661" cy="464.197" width="141.74" height="28.3465"/>
			<rect x="0" y="450.024" width="141.732" height="28.3465" class="st1"/>
			<text x="40.6" y="469" class="st2" v:langID="1033"><v:paragraph v:horizAlign="1"/><v:tabList/>Projects</text>		</g>
		<g id="shape8-22" v:mID="8" v:groupContext="shape" transform="translate(203.752,-19.5)">
			<title>Sheet.8</title>
			<desc>Option sets Options</desc>
			<v:textBlock v:margins="rect(4,4,4,4)" v:tabSpace="42.5197"/>
			<v:textRect cx="70.8661" cy="450.024" width="141.74" height="56.6929"/>
			<rect x="0" y="421.677" width="141.732" height="56.6929" class="st1"/>
			<text x="40.1" y="445.22" class="st3" v:langID="1033"><v:paragraph v:spLine="-1.6" v:horizAlign="1"/><v:tabList/>Option sets<v:newlineChar/><tspan
						x="49.61" dy="1.6em" class="st4">Options</tspan></text>		</g>
		<g id="shape9-26" v:mID="9" v:groupContext="shape" transform="translate(203.752,-217.925)">
			<title>Sheet.9</title>
			<desc>Attributes</desc>
			<v:textBlock v:margins="rect(4,4,4,4)" v:tabSpace="42.5197"/>
			<v:textRect cx="70.8661" cy="450.024" width="141.74" height="56.6929"/>
			<rect x="0" y="421.677" width="141.732" height="56.6929" class="st1"/>
			<text x="44.21" y="454.82" class="st3" v:langID="1033"><v:paragraph v:spLine="-1.6" v:horizAlign="1"/><v:tabList/>Attributes</text>		</g>
		<g id="shape10-29" v:mID="10" v:groupContext="shape" transform="translate(19.5,-76.1929)">
			<title>Sheet.10</title>
			<desc>Catalogs Sections Subsection Question sets Questions</desc>
			<v:textBlock v:margins="rect(4,4,4,4)" v:tabSpace="42.5197"/>
			<v:textRect cx="56.6929" cy="379.157" width="113.39" height="198.425"/>
			<rect x="0" y="279.945" width="113.386" height="198.425" class="st1"/>
			<text x="33.84" y="345.56" class="st3" v:langID="1033"><v:paragraph v:spLine="-1.6" v:horizAlign="1"/><v:tabList/>Catalogs<v:newlineChar/><tspan
						x="34.3" dy="1.6em" class="st4">Sections<v:newlineChar/></tspan><tspan x="27.25" dy="1.6em" class="st4">Subsection<v:newlineChar/></tspan><tspan
						x="20" dy="1.6em" class="st4">Question sets<v:newlineChar/></tspan><tspan x="29.51" dy="1.6em" class="st4">Questions</tspan></text>		</g>
		<g id="shape11-36" v:mID="11" v:groupContext="shape" transform="translate(203.752,-373.831)">
			<title>Sheet.11</title>
			<desc>Snapshots Values</desc>
			<v:textBlock v:margins="rect(4,4,4,4)" v:tabSpace="42.5197"/>
			<v:textRect cx="70.8661" cy="450.024" width="141.74" height="56.6929"/>
			<rect x="0" y="421.677" width="141.732" height="56.6929" class="st1"/>
			<text x="43.07" y="445.22" class="st3" v:langID="1033"><v:paragraph v:spLine="-1.6" v:horizAlign="1"/><v:tabList/>Snapshots<v:newlineChar/><tspan
						x="53.27" dy="1.6em" class="st4">Values</tspan></text>		</g>
		<g id="shape15-40" v:mID="15" v:groupContext="shape" transform="translate(744.484,331.311) rotate(90)">
			<title>45 degree double</title>
			<v:userDefs>
				<v:ud v:nameU="visVersion" v:val="VT0(14):26"/>
			</v:userDefs>
			<path d="M0 469.87 L8.5 461.36 L8.5 466.97 L19.84 466.97 L19.84 461.36 L28.35 469.87 L19.84 478.37 L19.84 472.76 L8.5
						 472.76 L8.5 478.37 L0 469.87 Z" class="st5"/>
		</g>
		<g id="shape18-42" v:mID="18" v:groupContext="shape" transform="translate(359.657,713.303) scale(1,-1)">
			<title>45 degree single.18</title>
			<v:userDefs>
				<v:ud v:nameU="visVersion" v:val="VT0(14):26"/>
			</v:userDefs>
			<path d="M0 467.03 L11.34 455.69 L11.34 463.18 L42.52 463.18 L42.52 470.89 L11.34 470.89 L11.34 478.37 L0 467.03 Z"
					class="st5"/>
		</g>
		<g id="shape16-44" v:mID="16" v:groupContext="shape" transform="translate(359.657,656.61) scale(1,-1)">
			<title>45 degree single.16</title>
			<v:userDefs>
				<v:ud v:nameU="visVersion" v:val="VT0(14):26"/>
			</v:userDefs>
			<path d="M0 467.03 L11.34 455.69 L11.34 463.18 L42.52 463.18 L42.52 470.89 L11.34 470.89 L11.34 478.37 L0 467.03 Z"
					class="st5"/>
		</g>
		<g id="shape19-46" v:mID="19" v:groupContext="shape" transform="translate(359.657,769.996) scale(1,-1)">
			<title>45 degree single.19</title>
			<v:userDefs>
				<v:ud v:nameU="visVersion" v:val="VT0(14):26"/>
			</v:userDefs>
			<path d="M0 467.03 L11.34 455.69 L11.34 463.18 L42.52 463.18 L42.52 470.89 L11.34 470.89 L11.34 478.37 L0 467.03 Z"
					class="st5"/>
		</g>
		<g id="shape12-48" v:mID="12" v:groupContext="shape" transform="translate(189.579,-164.067) scale(-1,1)">
			<title>45 degree single.12</title>
			<v:userDefs>
				<v:ud v:nameU="visVersion" v:val="VT0(14):26"/>
			</v:userDefs>
			<path d="M0 467.03 L11.34 455.69 L11.34 463.18 L42.52 463.18 L42.52 470.89 L11.34 470.89 L11.34 478.37 L0 467.03 Z"
					class="st5"/>
		</g>
		<g id="shape20-50" v:mID="20" v:groupContext="shape" transform="translate(189.579,-277.453) scale(-1,1)">
			<title>45 degree single.20</title>
			<v:userDefs>
				<v:ud v:nameU="visVersion" v:val="VT0(14):26"/>
			</v:userDefs>
			<path d="M0 467.03 L11.34 455.69 L11.34 463.18 L42.52 463.18 L42.52 470.89 L11.34 470.89 L11.34 478.37 L0 467.03 Z"
					class="st5"/>
		</g>
		<g id="shape21-52" v:mID="21" v:groupContext="shape" transform="translate(189.579,-79.0276) scale(-1,1)">
			<title>45 degree single.21</title>
			<v:userDefs>
				<v:ud v:nameU="visVersion" v:val="VT0(14):26"/>
			</v:userDefs>
			<path d="M0 467.03 L11.34 455.69 L11.34 463.18 L42.52 463.18 L42.52 470.89 L11.34 470.89 L11.34 478.37 L0 467.03 Z"
					class="st5"/>
		</g>
		<g id="shape22-54" v:mID="22" v:groupContext="shape" transform="translate(741.65,161.232) rotate(90) scale(-1,1)">
			<title>45 degree single.22</title>
			<v:userDefs>
				<v:ud v:nameU="visVersion" v:val="VT0(14):26"/>
			</v:userDefs>
			<path d="M0 467.03 L11.34 455.69 L11.34 463.18 L42.52 463.18 L42.52 470.89 L11.34 470.89 L11.34 478.37 L0 467.03 Z"
					class="st5"/>
		</g>
	</g>
</svg>
